!!!SOCIAL_FUNCTION:	songs of social dances
!!!PDT:	1958
!!!OTL: No_29_Slide_Dance_Song.krn
!!!REG: Northern California
!!!LANG: Non-Tone
!!!LING_GROUP: Penutian
**kern
*staff1
=1-
*clefF4
*k[f#c#g#d#a#]
*M2/4
8F#\L
8F#\J
16G#\LL
16F#\JJ
8r
=2!|:
8G#\L
16.A#\L
32G#\JJk
16G#\LL
16F#\JJ
8r
=3
8G#\L
16.G#\L
32F#\JJk
16F#\LL
16D#\JJ
8r
=4
8F#\L
8F#\J
16G#\LL
16F#\JJ
8r
=5
8G#\L
16.A#\L
32G#\JJk
16G#\LL
16F#\JJ
8r
=6
8G#\L
16.G#\L
32F#\JJk
16F#\LL
16D#\JJ
8r
=7
8F#\L
8F#\J
16G#\LL
16F#\JJ
8r
==:|!
*-
